X:536
T: SCHOENSTES SCHAETZCHEN
N: E0518B
O: Europa, Mitteleuropa, Deutschland, Rheinpfalz
R: Liebes - Lied
M: 3/4
L: 1/16
K: G
G3G | G4D4B3B | B4G4
B2d2 | d4e2d2c2B2 | A4z4
B2d2 | c2B2A4D2D2 | G2B2d4
B2d2 | c2B2A4D2D2 | G2B2d4
G4 | e4e4e4 | d6c2
B2d2 | c4B4A4 | G8

